X: 23838
T: Little Vegas
R: reel
M: 4/4
K: Aminor
|:e3 a gac'2-|c'aga eaga|e3 a gac'a|gedcd2 cd|
ee/e/ ea gac'c'|c'aga eaga|c3e dcde|dcAG A4:|
|:AeeA geAa-|ageg dgcg|AeeA gedc-|cd e/d/c a4|
AeeA geAa-|ageg dgBg|c3e dcde|dcAG A4:|

